X:1
T:Title
%%score { ( 1 4 ) | ( 2 3 ) }
L:1/8
M:4/4
K:Ab
V:1 treble nm="Grand Piano"
V:4 treble 
V:2 bass 
V:3 bass 
V:1
 z4 z2 z[Q:1/4=100] [A,CE] | [A,CE]2 [A,EA]2 [A,EA]3 [A,CE] | .[A,DG]2 [A,FA][FB] [Ec]3 [Ec] | %3
 c2 B2 D3 B |[M:7/8] [DB]2 [CA]2 [CE]3 |[M:1/8] [CE] |[M:4/4] [CE]2 [EA]2 [EA]3 [CE] | %7
 [DF][DG][FA][FB] [Ec]3 [_Gc] | z4 z2 .B2 |[M:7/8] B- B3 [CA]2 z |[M:1/8] [Ec] | %11
[M:4/4] [Ec]2 [Fd]2 [Ec]3 [A,EA] | [DFA]2 [A,DF]2 [A,CE]3 [CEA] | [G,EG]2 [EB]2 [Gd]2 [DEG]2 | %14
[M:7/8] [CEA]- [CEA]3 [Ec]2 z |[M:1/8] [CE] |[M:4/4] [CE]2 [EA]2 [EA]3 [CE] | %17
 [DF][DG][FA][FB] [Ec]3 [_Gc] | z4 z2 .B2 |[M:15/8] B3- B [CA]2 z3 z6 |] %20
V:2
 z4 z2 z A,, | A,,2 C,2 C,3 A,, | z AD,[D,A,] [A,,A,]3 [A,,A,] | %3
 [E,A,E]2 [E,G,D]2 [E,G,B,]3 [E,G,D] |[M:7/8] [A,,E,]2 [A,,E,]2 [A,,A,]3 |[M:1/8] [A,,A,] | %6
[M:4/4] [A,,A,]2 [C,A,]2 [C,A,]3 [A,,A,] | [D,A,][D,A,][D,A,][D,A,] [A,,A,]3 [A,,A,] | %8
 [D,A,]2 [D,A,]2 [B,,A,]2 [B,,A,]2 |[M:7/8] [E,G,D]- [E,G,D]3 [A,,A,]2 z |[M:1/8] [A,,A,] | %11
[M:4/4] [A,,A,]2 [A,,A,]2 [A,,A,]3 C, | D,2 D,2 A,,3 A,, | E,2 [E,G,]2 [E,B,]2 E,2 | %14
[M:7/8] A,,- A,,3 [A,,A,]2 z |[M:1/8] [A,,A,] |[M:4/4] [A,,A,]2 [C,A,]2 [C,A,]3 [A,,A,] | %17
 [D,A,][D,A,][D,A,][D,A,] [A,,A,]3 [A,,A,] | [D,A,]2 [D,A,]2 [B,,A,]2 [B,,A,]2 | %19
[M:15/8] [E,G,D]3- [E,G,D] [A,,A,]2 z3 z6 |] %20
V:3
 x8 | x8 | D,2 z2 z4 | x8 |[M:7/8] x7 |[M:1/8] x |[M:4/4] x8 | x8 | x8 |[M:7/8] x7 |[M:1/8] x | %11
[M:4/4] x8 | x8 | x8 |[M:7/8] x7 |[M:1/8] x |[M:4/4] x8 | x8 | x8 |[M:15/8] x15 |] %20
V:4
 x8 | x8 | x8 | x8 |[M:7/8] x7 |[M:1/8] x |[M:4/4] x8 | x8 | [Fe]2 [Fd]2 [=DF]2 D-[Dc] | %9
[M:7/8] x7 |[M:1/8] x |[M:4/4] x8 | x8 | x8 |[M:7/8] x7 |[M:1/8] x |[M:4/4] x8 | x8 | %18
 [Fe]2 [Fd]2 [=DF]2 D-[Dc] |[M:15/8] x15 |] %20

